src/pos-icons/umbraco.svg

<svg height="24" viewBox="0 0 24 24" width="24" xmlns="http://www.w3.org/2000/svg"><path d="m8.6 8.6-1.43-.22c-.67 3.29-.71 5.86.44 7.12.99 1.11 4.28 1.11 4.28 1.11s3.4 0 4.39-1.11c1.15-1.26 1.1-3.83.44-7.12l-1.43.22s1.25 5.28-.6 6.09c-.88.38-2.8.38-2.8.38s-1.81 0-2.69-.38c-1.85-.81-.6-6.09-.6-6.09m3.4-5.6a9 9 0 0 1 9 9 9 9 0 0 1 -9 9 9 9 0 0 1 -9-9 9 9 0 0 1 9-9z"/></svg>

<?xml version="1.0" encoding="UTF-8"?><!DOCTYPE svg PUBLIC "-//W3C//DTD SVG 1.1//EN" "http://www.w3.org/Graphics/SVG/1.1/DTD/svg11.dtd"><svg xmlns="http://www.w3.org/2000/svg" xmlns:xlink="http://www.w3.org/1999/xlink" version="1.1" id="mdi-umbraco" width="24" height="24" viewBox="0 0 24 24"><path d="M8.6,8.6L7.17,8.38C6.5,11.67 6.46,14.24 7.61,15.5C8.6,16.61 11.89,16.61 11.89,16.61C11.89,16.61 15.29,16.61 16.28,15.5C17.43,14.24 17.38,11.67 16.72,8.38L15.29,8.6C15.29,8.6 16.54,13.88 14.69,14.69C13.81,15.07 11.89,15.07 11.89,15.07C11.89,15.07 10.08,15.07 9.2,14.69C7.35,13.88 8.6,8.6 8.6,8.6M12,3A9,9 0 0,1 21,12A9,9 0 0,1 12,21A9,9 0 0,1 3,12A9,9 0 0,1 12,3Z" /></svg>
